X: 323
T:Je ne demande
N: Derived from Jos2718-Je_ne_demande.krn
C: Josquin des Prez
%%abc-version 2.0
%%abcx-abcm2ps-target-version 5.9.1 (29 Sep 2008)
%%abc-creator hum2abc beta
%%abcx-conversion-date 2019/02/12 16:15:54
%%abc-edited-by Jesse Rodin
%%abc-edited-by Victoria Chang 2012/03/28
%%abcx-initial-encoding-date 2012/03/28/
%%humdrum-veritas 4182316200
%%humdrum-veritas-data 1000520839
%%linebreak <none>
%%barnumbers 0
L: 1/4
M: 2/1
Q: 1/2=120
V: 1 clef=treble
V: 2 clef=treble-8
V: 3 clef=bass
K: F
[V:1] G4G4 | 
[V:2] G8 | 
[V:3] z8 | 
[V:1] A4B4- | 
[V:2] F4G4- | 
[V:3] z8 | 
[V:1] B2A2B4 | 
[V:2] G2F2G4 | 
[V:3] z8 | 
[V:1] c4A4 | 
[V:2] A4F4 | 
[V:3] z8 | 
[V:1] G6FE | 
[V:2] G3DG2A2 | 
[V:3] z8 | 
[V:1] D4C2D2- | 
[V:2] B4A2B2- | 
[V:3] z8 | 
[V:1] DCB,2A,4 | 
[V:2] BAG4^F2 | 
[V:3] z8 | 
[V:1] G,8 | 
[V:2] G8 | 
[V:3] G,8 | 
[V:1] z8 | 
[V:2] g3fg2a2 | 
[V:3] G,3A,B,2C2 | 
[V:1] z8 | 
[V:2] d2g4^f2 | 
[V:3] D2B,2A,4 | 
[V:1] B8 | 
[V:2] g4g4 | 
[V:3] G,8 | 
[V:1] B4B4- | 
[V:2] z4g4 | 
[V:3] G,4G,4 | 
[V:1] B4A4- | 
[V:2] e4f4- | 
[V:3] z4F,4 | 
[V:1] A2GFG4 | 
[V:2] f2ede4 | 
[V:3] D,4C,4 | 
[V:1] z2F4ED | 
[V:2] f2d4cB | 
[V:3] D,2B,,4z2 | 
[V:1] E4z2D2- | 
[V:2] c4d2B2- | 
[V:3] A,,4B,,2G,,2- | 
[V:1] D2CB,C4 | 
[V:2] B2AGA4 | 
[V:3] G,,2z2F,,4 | 
[V:1] B,3CD3E | 
[V:2] z2B3cd2- | 
[V:3] G,,3A,,B,,3C, | 
[V:1] F2G2B2A2- | 
[V:2] d2B4c2- | 
[V:3] D,2_E,2G,2F,2- | 
[V:1] AGG4^F2 | 
[V:2] cBG2A4 | 
[V:3] F,2G,2D,4 | 
[V:1] G8 | 
[V:2] G6A2 | 
[V:3] _E,6F,2 | 
[V:1] z4D3E | 
[V:2] B6c2 | 
[V:3] G,4G,2F,E, | 
[V:1] F6GA | 
[V:2] d4d4- | 
[V:3] D,6E,F, | 
[V:1] B4A2d2- | 
[V:2] d2e2f4 | 
[V:3] G,4F,2B,2- | 
[V:1] d2cBA4 | 
[V:2] g4f4 | 
[V:3] B,A,B,CD4 | 
[V:1] z2G3FED | 
[V:2] d2_e3dcB | 
[V:3] G,2_E,6 | 
[V:1] E4D2F2- | 
[V:2] c4d3c | 
[V:3] A,4D,3E, | 
[V:1] F2G2A4 | 
[V:2] A2B2c2d2- | 
[V:3] F,2E,G,F,A,D,2- | 
[V:1] B4c2A2- | 
[V:2] d2e4f2 | 
[V:3] D,2G,4F,2- | 
[V:1] A2d4c2 | 
[V:2] d3cB2A2- | 
[V:3] F,2G,2D,2F,2- | 
[V:1] A4F4 | 
[V:2] ABc2d4 | 
[V:3] F,G,A,2D,2B,,2- | 
[V:1] G2B4A2 | 
[V:2] B4c4 | 
[V:3] B,,4F,4 | 
[V:1] B8 | 
[V:2] B4B4 | 
[V:3] B,,4B,,4 | 
[V:1] z8 | 
[V:2] z4B3c | 
[V:3] B,,3C,D,2G,,2- | 
[V:1] z8 | 
[V:2] d2A4d2 | 
[V:3] G,,2D,3E,F,G, | 
[V:1] z8 | 
[V:2] c2d2c3B | 
[V:3] A,2B,2A,2C2- | 
[V:1] z8 | 
[V:2] AGF2A2D2 | 
[V:3] CB,A,G,F,2A,2 | 
[V:1] z8 | 
[V:2] F2Bcdef2- | 
[V:3] D,2G,4D2- | 
[V:1] z8 | 
[V:2] fdg4^f2 | 
[V:3] DCB,2A,4 | 
[V:1] B6A2 | 
[V:2] g6f2 | 
[V:3] G,4z4 | 
[V:1] G2F2F4 | 
[V:2] e2d2d4 | 
[V:3] z4D,4 | 
[V:1] z2D2F2G2 | 
[V:2] B2d4cB | 
[V:3] G,4D,3E, | 
[V:1] A4G4 | 
[V:2] A3Bc4- | 
[V:3] F,4C,4- | 
[V:1] E2F3GA2- | 
[V:2] c2A4z2 | 
[V:3] C,2D,3E,F,2 | 
[V:1] A2G4c2- | 
[V:2] c3de3d | 
[V:3] F,2E,4A,2- | 
[V:1] c2B4G2 | 
[V:2] efg2e4 | 
[V:3] A,2G,4E,2 | 
[V:1] d4cBA2- | 
[V:2] d6f2 | 
[V:3] G,6F,2- | 
[V:1] A2GFE4- | 
[V:2] d4c4- | 
[V:3] F,2G,2C,4- | 
[V:1] E2F2G2FE | 
[V:2] c2BAG3A | 
[V:3] C,2D,2E,3F, | 
[V:1] D4z2d2- | 
[V:2] B4z4 | 
[V:3] G,4G,2F,2 | 
[V:1] d2d4cB | 
[V:2] Bcd2d4 | 
[V:3] G,3F,D,3E, | 
[V:1] A2c2B2A2- | 
[V:2] c4G2c2- | 
[V:3] F,4G,2A,2 | 
[V:1] AGG4^F2 | 
[V:2] c2B2A4 | 
[V:3] F,2G,2D,4 | 
[V:1] G8 |]  
[V:2] G8 |]  
[V:3] G,,8 & D8 |]  



